X:1
T:One Blessèd Hour with Jesus
T:One Blessèd Hour with Jesus
T:William Howard Doane
T:Frances Jane (Fanny) Crosby, 1877
T:Public Domain Courtesy of the Cyber Hymnal™
T:Public Domain Courtesy of the Cyber Hymnal™
C:William Howard Doane
Z:Public Domain
Z:Courtesy of the Cyber Hymnal™
%%score ( 1 2 ) ( 3 4 )
L:1/8
Q:1/4=103
M:4/4
K:Db
V:1 treble 
V:2 treble 
V:3 bass 
V:4 bass 
V:1
 [FA]2 [GB][FA] [Fd]3 [FA] | [FA]2 [GB][FA] [DF]4 | [DG]2 [FA][GB] A2 [Fd]2 | %3
w: 1.~One bless- èd hour with|Je- sus our Lord,|One bless- èd hour to|
w: 2.~One bless- èd hour with|Je- sus to plead,|One bless- èd hour to|
w: 3.~One bless- èd hour from|la- bor to rest,|One bless- èd hour to|
w: 4.~One bless- èd hour with|Je- sus our king,|One bless- èd hour to|
 [FA]2 [FA][DF] [CE]4 | [FA]2 [GB][FA] [Fd]3 [FA] | [FA]2 [GB][FA] [DF]4 | %6
w: feast on His Word;|One bless- èd hour with|Je- sus a- part,|
w: tell Him our need;|One bless- èd hour re-|fresh- ing and sweet,|
w: lean on His breast;|Lov- ing and loved, His|fa- vor to share,|
w: speak and to sing;|One bless- èd hour with|Je- sus, how dear!|
 [DG]2 [FA][GB] A2 [Fd]2 | [FA][DF][EG][CE] D4 ||"^Refrain" [CA]3 [CA] [CA][CA][DB][Ec] | %9
w: One bless- èd hour to|calm the trou- bled heart.||
w: One bless- èd hour to|sit at Je- sus’ feet.|One sweet hour of ho- ly,|
w: One bless- èd hour of|soul re- viv- ing prayer.||
w: Sure- ly ’tis Heav’n, and|Heav’n it- self is here.||
 [Fd]3 [Gd] [Fd]4 | [Ec]3 [Ec] [Gc][Gc][GB][Gc] | [Fd]3 [Gd] [Fd]4 | [Fd]3 [Ad] [Bd][Ac][GB][FA] | %13
w: ||||
w: calm de- light,|One sweet hour of ten- der,|mel- ting love;|One sweet hour, O pre- cious|
w: ||||
w: ||||
 [FA]4 !fermata![Fd]2 D[DE] | [DF]4 [CE]4 | D6 z2 |] %16
w: |||
w: Sav- ior, One sweet|hour with|Thee.|
w: |||
w: |||
V:2
 x8 | x8 | x4 A2 x2 | x8 | x8 | x8 | x4 A2 x2 | x4 D4 || x8 | x8 | x8 | x8 | x8 | x6 D x | x8 | %15
 D6 x2 |] %16
V:3
 [D,D]2 [D,D][D,D] [D,A,]3 [D,A,] | [D,D]2 [D,D][D,D] [D,A,]4 | [B,D]2 [A,D][G,D] [F,D]2 [D,D]2 | %3
 [D,D]2 [D,D][F,A,] A,4 | [D,D]2 [D,D][D,D] [D,A,]3 [D,A,] | [D,D]2 [D,D][D,D] [D,A,]4 | %6
 [B,D]2 [A,D][G,D] [F,D]2 [D,D]2 | [A,D]A,[A,,A,][A,,G,] [D,F,]4 || A,3 A, A,A,A,A, | %9
 [D,A,]3 [D,B,] [D,A,]4 | A,3 [A,C] [A,E][A,E][A,D][A,E] | [D,D]3 [D,B,] [D,A,]4 | %12
 [D,A,]3 [F,D] [F,D][F,D][F,D][D,D] | [D,D]4 !fermata![D,A,]2 [F,A,][G,B,] | A,4 (G,2 G,2) | %15
 [D,F,]6 z2 |] %16
V:4
 x8 | x8 | x8 | x4 A,4 | x8 | x8 | x8 | x A, x6 || A,3 A, A,A,A,A, | x8 | A,3 x5 | x8 | x8 | x8 | %14
 A,4 A,,4 | x8 |] %16

